icons/tokens/0x0391D2021f89DC339F60Fff84546EA23E337750f/logo.svg

<svg width="32" height="32" viewBox="0 0 32 32" fill="none" xmlns="http://www.w3.org/2000/svg">
<path fill-rule="evenodd" clip-rule="evenodd" d="M32.0006 16C32.0006 13.9059 31.584 11.8118 30.7827 9.87712C29.9814 7.9424 28.7952 6.16704 27.3142 4.6864C25.8336 3.20544 24.0582 2.0192 22.1235 1.21792C20.1888 0.41664 18.0947 0 16.0006 0C13.9065 0 11.8125 0.41664 9.87773 1.21792C7.94301 2.0192 6.16765 3.20544 4.68701 4.6864C3.20605 6.16704 2.01981 7.9424 1.21853 9.87712C0.41725 11.8118 0.000610352 13.9059 0.000610352 16C0.000610352 18.0941 0.41725 20.1882 1.21853 22.1229C2.01981 24.0576 3.20605 25.833 4.68701 27.3136C6.16765 28.7946 7.94301 29.9808 9.87773 30.7821C11.8125 31.5834 13.9065 32 16.0006 32C18.0947 32 20.1888 31.5834 22.1235 30.7821C24.0582 29.9808 25.8336 28.7946 27.3142 27.3136C28.7952 25.833 29.9814 24.0576 30.7827 22.1229C31.584 20.1882 32.0006 18.0941 32.0006 16Z" fill="white"/>
<path fill-rule="evenodd" clip-rule="evenodd" d="M16.0707 12.6512C16.024 12.6512 15.9769 12.6512 15.9302 12.6512C14.0326 12.6512 12.5565 14.1974 12.5565 16.1654C12.5565 17.4307 12.5565 18.6957 12.5565 19.961L16.0006 17.3603L19.4445 19.961C19.4445 18.6957 19.4445 17.4307 19.4445 16.1654C19.4445 14.2678 17.8982 12.7216 16.0707 12.6512Z" fill="#FF4339"/>
<path fill-rule="evenodd" clip-rule="evenodd" d="M28.1472 26.4147C30.0988 24.1382 31.4192 21.2314 31.8467 18.215C32.2739 15.1987 31.8083 12.073 30.5372 9.31552C29.2665 6.55776 27.1904 4.168 24.6332 2.52864C22.0764 0.88928 19.0384 0 16.0006 0C12.9628 0 9.92477 0.88928 7.36797 2.52864C4.81085 4.168 2.73469 6.55776 1.46397 9.31552C0.192928 12.0733 -0.272672 15.1987 0.154528 18.215C0.582048 21.2314 1.90237 24.1382 3.85405 26.4147L10.167 21.7178V14.2675L8.55037 13.0026L16.0006 7.37984L23.4508 13.0026L21.8342 14.2675V21.7178L28.1472 26.4147Z" fill="#FF4339"/>
</svg>

<svg fill="none" viewBox="0 0 32 32"><path fill="#fff" fill-rule="evenodd" d="M32 16a16.06 16.06 0 00-1.217-6.123 16.046 16.046 0 00-3.469-5.19 16.046 16.046 0 00-5.19-3.47A16.055 16.055 0 0016 0c-2.095 0-4.189.417-6.123 1.218a16.047 16.047 0 00-5.191 3.468 16.047 16.047 0 00-3.468 5.191A16.054 16.054 0 000 16c0 2.094.416 4.188 1.218 6.123a16.046 16.046 0 003.468 5.19 16.046 16.046 0 005.19 3.47A16.054 16.054 0 0016.002 32c2.094 0 4.188-.417 6.122-1.218a16.046 16.046 0 005.191-3.468 16.046 16.046 0 003.469-5.191A16.054 16.054 0 0032 16z" clip-rule="evenodd"/><path fill="#FF4339" fill-rule="evenodd" d="M16.07 12.651h-.14c-1.897 0-3.373 1.546-3.373 3.514v3.796l3.444-2.6 3.444 2.6v-3.796c0-1.897-1.547-3.443-3.374-3.514z" clip-rule="evenodd"/><path fill="#FF4339" fill-rule="evenodd" d="M28.147 26.415a16.245 16.245 0 003.7-8.2 16.023 16.023 0 00-1.31-8.9 16.143 16.143 0 00-5.904-6.786A16.108 16.108 0 0016.001 0c-3.038 0-6.076.89-8.633 2.529a16.143 16.143 0 00-5.904 6.787 16.024 16.024 0 00-1.31 8.899 16.244 16.244 0 003.7 8.2l6.313-4.697v-7.45L8.55 13.002 16 7.38l7.45 5.623-1.616 1.264v7.45l6.313 4.698z" clip-rule="evenodd"/></svg>
